packages/foundations/assets/icons/functional/images/environment/globe_24.svg

<svg width="24" height="24" viewBox="0 0 24 24" fill="none" xmlns="http://www.w3.org/2000/svg">
<g clip-path="url(#clip0_185_802)">
<path fill-rule="evenodd" clip-rule="evenodd" d="M12 2C17.5 2 22 6.5 22 12C22 17.5312 17.5312 22 12 22C6.4688 22 2 17.5312 2 12C2 6.4688 6.4688 2 12 2ZM8 13H4.0625C4.5 16.5625 7.3125 19.4375 11 19.9375C9.75 18.3438 8.6875 15.875 8 13ZM14.5625 13H10.0625C11.1875 17.6875 13.1875 19.8125 13.8125 19.6562C14.25 19.5625 14.8125 18.25 14.8125 15.9062C14.8125 15.0625 14.7188 14.0938 14.5625 13ZM19.9375 13H16.5625C16.7188 14 16.7812 14.9688 16.7812 15.875C16.7812 16.875 16.6875 17.8125 16.5 18.5938C18.4688 17.2188 19.5312 15.5312 19.9375 13ZM7.6875 5.2812C5.5625 6.6875 4.375 8.6875 4.0625 11H7.625C7.4688 9.9688 7.4062 8.9375 7.4062 8C7.4062 7 7.5 6.0938 7.6875 5.2812ZM10.4062 4.25C9.9688 4.25 9.375 5.5625 9.375 8C9.375 8.875 9.4375 9.875 9.625 11H14.1562C13.0312 6.375 11.125 4.25 10.4062 4.25ZM13.2812 4.0938C14.5625 5.8438 15.5625 8.25 16.2188 11H19.9375C19.4375 7.4375 16.7812 4.6875 13.2812 4.0938Z" fill="#1A1C1F"/>
</g>
<defs>
<clipPath id="clip0_185_802">
<rect width="24" height="24" fill="white"/>
</clipPath>
</defs>
</svg>

<svg xmlns="http://www.w3.org/2000/svg" width="24" height="24" fill="none"><g clip-path="url(#a)"><path fill="#1A1C1F" fill-rule="evenodd" d="M12 2c5.5 0 10 4.5 10 10a9.99 9.99 0 0 1-10 10A9.99 9.99 0 0 1 2 12 9.99 9.99 0 0 1 12 2M8 13H4.063c.437 3.563 3.25 6.438 6.937 6.938C9.75 18.344 8.688 15.875 8 13m6.563 0h-4.5c1.124 4.688 3.124 6.813 3.75 6.656.437-.093 1-1.406 1-3.75 0-.844-.094-1.812-.25-2.906m5.374 0h-3.375c.157 1 .22 1.969.22 2.875 0 1-.095 1.938-.282 2.719 1.969-1.375 3.031-3.063 3.438-5.594M7.688 5.281C5.563 6.688 4.376 8.688 4.063 11h3.563a20 20 0 0 1-.219-3q0-1.5.282-2.719m2.72-1.031c-.438 0-1.032 1.313-1.032 3.75 0 .875.063 1.875.25 3h4.531c-1.125-4.625-3.031-6.75-3.75-6.75m2.874-.156C14.562 5.844 15.562 8.25 16.22 11h3.718c-.5-3.562-3.156-6.312-6.656-6.906" clip-rule="evenodd"/></g><defs><clipPath id="a"><path fill="#fff" d="M0 0h24v24H0z"/></clipPath></defs></svg>
